images/logo.svg

<?xml version="1.0" encoding="utf-8"?>
<!-- Generator: Adobe Illustrator 16.0.0, SVG Export Plug-In . SVG Version: 6.00 Build 0)  -->
<!DOCTYPE svg PUBLIC "-//W3C//DTD SVG 1.1//EN" "http://www.w3.org/Graphics/SVG/1.1/DTD/svg11.dtd">
<svg version="1.1" id="Layer_1" xmlns="http://www.w3.org/2000/svg" xmlns:xlink="http://www.w3.org/1999/xlink" x="0px" y="0px"
	 width="294.082px" height="178.13px" viewBox="0 0 294.082 178.13" enable-background="new 0 0 294.082 178.13"
	 xml:space="preserve">
<path fill="#FFFFFF" d="M233.396,0h-56.588c-6.098,0-11.12,0.833-15.163,2.579L161.076,0H61.055C24.19,0,0.37,22.657,0.37,57.662
	L0,75.207v26.234c0,48.021,27.738,76.689,74.199,76.689h41.178c19.935,0,28.44-8.86,28.44-29.626V118.06l0.076-0.006v-2.256h4.475
	v38.396c0,14.988,8.328,23.937,22.276,23.937c14.097,0,22.514-8.948,22.514-23.937v-38.396h38.224c39.261,0,62.7-21.711,62.7-58.077
	C294.082,22.657,270.262,0,233.396,0z M132.933,80.966l-0.597,2.533c-3.699-1.7-8.285-2.557-13.801-2.557l-40.307,0.001
	c-12.494,0-19.659,6.303-19.659,17.292c0,10.983,7.349,17.541,19.659,17.541h22.982v24.564H78.79l0-0.007h-3.05
	c-25.582,0-30.951-21.215-30.951-39.012V77.106l0.014-18.674c0-14.742,7.628-22.534,22.06-22.534h81.505v45.068H132.933z
	 M223.202,80.966h-29.926V35.898h34.312c14.432,0,22.06,7.792,22.06,22.534C249.647,75.07,242.728,80.966,223.202,80.966z"/>
<path fill="#282425" d="M291.247,57.721c0,35.444-22.761,55.242-59.865,55.242h-41.059h-46.43v-7.373
	c0-10.926-3.625-18.129-10.96-21.789h57.508h32.761c20.271,0,29.28-6.639,29.28-25.369c0-16.122-8.891-25.369-24.895-25.369h-37.146
	v47.903h-39.238v-6.915V47.718V29.625c0-19.323,7.112-26.791,25.605-26.791h56.588C268.842,2.834,291.247,24.41,291.247,57.721z
	 M151.203,154.194c0,13.515,6.994,21.102,19.441,21.102c12.565,0,19.679-7.705,19.679-21.102v-38.396h-39.12V154.194z"/>
<path fill="#282425" d="M118.535,83.778H79.491c-0.011,0-0.021,0.001-0.033,0.001h-1.23c-10.967,0-16.824,5.109-16.824,14.457
	c0,9.472,5.981,14.706,16.824,14.706h25.816v30.234H75.74l0-0.007c-21.813,0-33.786-14.818-33.786-41.847V77.104l0.014-18.672
	c0-16.122,8.891-25.369,24.895-25.369h81.505v-3.438c0-14.112,3.934-22.72,12.708-26.791H61.055
	c-35.445,0-57.851,21.575-57.851,54.887l-0.37,17.485v26.234c0,46.114,26.436,73.854,71.365,73.854h41.178
	c18.493,0,25.605-7.469,25.605-26.791v-33.069l0.076-0.006v-9.839C141.059,90.535,134.183,83.778,118.535,83.778z"/>
</svg>

<svg width="295" height="179" viewBox="0 0 295 179" fill="none" xmlns="http://www.w3.org/2000/svg">
<path d="M233.396 0H61.055C24.19 0 0.37 22.657 0.37 57.662L0 75.207V101.441C0 149.462 27.738 178.13 74.199 178.13H115.377C135.312 178.13 143.817 169.27 143.817 148.504V118.06L143.893 118.054V115.798H148.368V154.194C148.368 169.182 156.696 178.131 170.644 178.131C184.741 178.131 193.158 169.183 193.158 154.194V115.798H231.382C270.643 115.798 294.082 94.087 294.082 57.721C294.082 22.657 270.262 0 233.396 0ZM78.228 80.943C65.734 80.943 58.569 87.246 58.569 98.235C58.569 109.218 65.918 115.776 78.228 115.776H101.21V140.34H78.79V140.333H75.74C50.158 140.333 44.789 119.118 44.789 101.321V77.106L44.803 58.432C44.803 43.69 52.431 35.898 66.863 35.898H148.368V80.966C124.988 80.966 101.608 80.9424 78.228 80.943ZM223.202 80.966H193.276V35.898H227.588C242.02 35.898 249.648 43.69 249.648 58.432C249.647 75.07 242.728 80.966 223.202 80.966Z" fill="white"/>
<path d="M291.247 57.721C291.247 93.165 268.486 112.963 231.382 112.963H190.323H143.893V105.59C143.893 94.664 140.268 87.461 132.933 83.801H190.441H223.202C243.473 83.801 252.482 77.162 252.482 58.432C252.482 42.31 243.591 33.063 227.587 33.063H190.441V80.966H151.203V74.051V47.718V29.625C151.203 10.302 158.315 2.834 176.808 2.834H233.396C268.842 2.834 291.247 24.41 291.247 57.721ZM151.203 154.194C151.203 167.709 158.197 175.296 170.644 175.296C183.209 175.296 190.323 167.591 190.323 154.194V115.798H151.203V154.194Z" fill="#282425"/>
<path d="M118.535 83.778H79.491C79.48 83.778 79.47 83.779 79.458 83.779H78.228C67.261 83.779 61.404 88.888 61.404 98.236C61.404 107.708 67.385 112.942 78.228 112.942H104.044V143.176H75.74V143.169C53.927 143.169 41.954 128.351 41.954 101.322V77.104L41.968 58.432C41.968 42.31 50.859 33.063 66.863 33.063H148.368V29.625C148.368 15.513 152.302 6.905 161.076 2.834H61.055C25.61 2.834 3.204 24.409 3.204 57.721L2.834 75.206V101.44C2.834 147.554 29.27 175.294 74.199 175.294H115.377C133.87 175.294 140.982 167.825 140.982 148.503V115.434L141.058 115.428V105.589C141.059 90.535 134.183 83.778 118.535 83.778Z" fill="#282425"/>
</svg>
